X: 20483
M: C|
L: 1/8
K: G
|:\
|:\
d2dc B2g2 | e2ed c2a2 | g2gd ecAG | FGAB A4 |\
d2dc Bdg2 | e2ed cea2 | gfgd ecAF | G2G2 G4 :|


